logo/subversion.svg

<?xml version="1.0" encoding="UTF-8" standalone="no"?>
<svg width="256px" height="186px" viewBox="0 0 256 186" version="1.1" xmlns="http://www.w3.org/2000/svg" xmlns:xlink="http://www.w3.org/1999/xlink" preserveAspectRatio="xMidYMid">
    <g>
        <path d="M0,0 L0,67.1490265 C34.6001372,52.7415459 80.8312035,38.2624686 139.010265,23.6516814 C176.289491,14.303783 212.318806,6.44355172 247.119292,0 L0,0 L0,0 Z M256,14.3178761 C222.263111,19.3318151 192.007634,25.232056 165.380531,31.8980531 C134.897534,39.5546008 110.35752,47.2951273 91.7975221,55.1872566 C73.2137744,62.9380486 64.5808273,69.206596 65.7897345,74.0361062 C66.880097,78.3002379 74.6628739,80.2362468 89.1695575,79.8357522 C96.6362538,79.6944148 108.725761,78.873214 125.507965,77.3890265 C142.290226,75.9048391 163.957646,73.7585351 190.482124,70.9550442 C216.773398,68.2405489 238.54959,66.404642 256,65.3366372 L256,14.3178761 L256,14.3178761 Z M181.057699,99.500177 C173.591061,99.5944212 163.312029,100.165425 150.15646,101.131327 C136.953508,102.120805 120.619936,103.545662 101.040708,105.571681 C70.6525347,108.82276 45.3599015,111.353378 25.2828319,113.002478 C15.6521427,113.815182 7.28522535,114.320447 0,114.724248 L0,169.186549 C39.8750602,163.357788 75.9467996,156.408218 108.109027,148.344071 C139.706078,140.428395 163.990994,132.704194 181.057699,125.236106 C198.148096,117.768047 206.127423,111.432427 204.8,106.296637 C203.685888,101.867621 195.682898,99.6179678 181.057699,99.500177 L181.057699,99.500177 Z M256,118.620885 C220.96025,132.347313 177.469806,145.809538 125.507965,158.855929 C77.1300144,170.985918 35.340955,179.664943 0,185.044956 L0,185.498053 L256,185.498053 L256,118.620885 L256,118.620885 Z M10.6930973,130.038938 C10.8236474,130.019828 10.9236333,130.037807 11.0555752,130.038938 C11.7173728,130.06118 12.4229868,130.268575 12.8679646,130.763894 C13.5475961,131.463534 13.7240504,132.585186 13.3210619,133.482478 C12.8828117,134.515134 11.7196927,135.1379 10.6024779,134.932389 C9.36924115,134.753354 8.41302451,133.541112 8.51823009,132.304425 C8.55395591,131.140146 9.54224459,130.183117 10.6930973,130.038938 L10.6930973,130.038938 Z M19.7550442,130.038938 C20.33295,130.062195 20.8704902,130.179289 21.2955752,130.582655 C22.0985652,131.242452 22.4150809,132.429001 22.020531,133.391858 C21.6511225,134.38122 20.6389393,135.116209 19.5738053,135.023009 C18.6589691,134.985485 17.7590091,134.415467 17.3989381,133.573097 C16.9010384,132.478182 17.3066367,130.997301 18.3957522,130.401416 C18.8018144,130.152814 19.2777624,130.034124 19.7550442,130.038938 L19.7550442,130.038938 Z M11.0555752,146.078584 C12.1351793,146.04396 13.0997475,146.804004 13.4116814,147.800354 C13.7420872,148.908521 13.2164363,150.302872 12.1430088,150.790796 C11.0647967,151.331816 9.64863909,150.988883 8.97132743,149.975221 C8.28192351,148.985454 8.3772117,147.492335 9.33380531,146.71292 C9.8026197,146.294418 10.4258497,146.065303 11.0555752,146.078584 L11.0555752,146.078584 Z M19.7550442,146.078584 C20.6136818,146.031636 21.3767993,146.575034 21.839292,147.256637 C22.5055844,148.296021 22.2268244,149.795026 21.2049558,150.518938 C20.1799263,151.298497 18.5776291,151.167802 17.7614159,150.15646 C16.9176544,149.151672 16.973331,147.440718 18.0332743,146.622301 C18.4932153,146.242308 19.1546069,146.059532 19.7550442,146.078584 L19.7550442,146.078584 Z" fill="#809CC8"></path>
    </g>
</svg>

<svg viewBox="0 0 256 186" xmlns="http://www.w3.org/2000/svg"><path fill="#809CC8" d="M0 0v67.14c34.6-14.41 80.83-28.89 139.01-43.5 37.27-9.35 73.3-17.21 108.1-23.66H-.01v0Zm256 14.31c-33.74 5.01-64 10.91-90.62 17.58 -30.49 7.65-55.03 15.39-73.59 23.28 -18.59 7.75-27.22 14.01-26.01 18.84 1.09 4.26 8.87 6.2 23.37 5.79 7.46-.15 19.55-.97 36.33-2.45 16.78-1.49 38.44-3.64 64.97-6.44 26.29-2.72 48.06-4.56 65.51-5.62V14.27v0Zm-74.95 85.18c-7.47.09-17.75.66-30.91 1.63 -13.21.98-29.54 2.41-49.12 4.44 -30.39 3.25-55.69 5.78-75.76 7.43 -9.64.81-18 1.31-25.29 1.72v54.46c39.87-5.83 75.94-12.78 108.1-20.85 31.59-7.92 55.88-15.64 72.94-23.11 17.09-7.47 25.06-13.81 23.74-18.94 -1.12-4.43-9.12-6.68-23.75-6.8v0Zm74.94 19.12c-35.04 13.72-78.54 27.18-130.5 40.23 -48.38 12.12-90.17 20.8-125.51 26.18v.45h256v-66.88 0ZM10.68 130.02c.13-.02.23-.01.36 0 .66.02 1.36.22 1.81.72 .67.69.85 1.82.45 2.71 -.44 1.03-1.61 1.65-2.72 1.44 -1.24-.18-2.19-1.4-2.09-2.63 .03-1.17 1.02-2.13 2.17-2.27v0Zm9.06 0c.57.02 1.11.14 1.54.54 .8.65 1.11 1.84.72 2.8 -.37.98-1.39 1.72-2.45 1.63 -.92-.04-1.82-.61-2.18-1.45 -.5-1.1-.1-2.58.99-3.18 .4-.25.88-.37 1.35-.37v0Zm-8.7 16.03c1.07-.04 2.04.72 2.35 1.72 .33 1.1-.2 2.5-1.27 2.99 -1.08.54-2.5.19-3.18-.82 -.69-.99-.6-2.49.36-3.27 .46-.42 1.09-.65 1.72-.64v0Zm8.69 0c.85-.05 1.62.49 2.08 1.17 .66 1.03.38 2.53-.64 3.26 -1.03.77-2.63.64-3.45-.37 -.85-1.01-.79-2.72.27-3.54 .45-.38 1.12-.57 1.72-.55v0Z"/></svg>
